X:169
T:Coffee House, The
M:2/4
L:1/8
B:Thompson's Compleat Collection of 200 Favourite Country Dances, vol. 3 (London, 1773)
Z:Transcribed and edited by Flynn Titford-Mock, 2007
Z:abc's:AK/Fiddler's Companion
K:G
G2B2 | d3 c/B/ | cecA | FAFD | G2B2 | d3g | fed^c | d2 D2 :|
|: d2f2 | a3c | cBgB | c2 Ac | defg | cBec | BAGF | G2 G,2 :|

